svgs/sharp-light/backward-step.svg

<svg xmlns="http://www.w3.org/2000/svg" viewBox="0 0 320 512"><!--! Font Awesome Pro 6.6.0 by @fontawesome - https://fontawesome.com License - https://fontawesome.com/license (Commercial License) Copyright 2024 Fonticons, Inc. --><path d="M64 80l0-16L32 64l0 16 0 160 0 32 0 160 0 16 32 0 0-16 0-138L256 426l32 22 0-38.8 0-306.3L288 64 256 86 64 218 64 80zm1.2 176L256 124.8l0 262.3L65.2 256z"/></svg>

<svg xmlns="http://www.w3.org/2000/svg" viewBox="0 0 320 512"><!--! Font Awesome Pro 6.4.0 by @fontawesome - https://fontawesome.com License - https://fontawesome.com/license (Commercial License) Copyright 2023 Fonticons, Inc. --><path d="M64 80V64H32V80 240v32V432v16H64V432 294L256 426l32 22V409.2 102.8 64L256 86 64 218V80zm1.2 176L256 124.8V387.2L65.2 256z"/></svg>
